X: 1
T: Honeylocust
C: Rebecca Rose Weiss 2016
N: Use old-time syncopations
N: Honeylocusts are one of my favorite kinds of tree!
S: https://natunelist.net/honeylocust/
M: 4/4
L: 1/8
K: D
DE |\
"D"F2F2 "A"E2FE | "D"D3(D D2)B,D | "A"E3F EDB,C | "D"D3(D D2)DE |
"D"F2F2 E2D2 | "G"[B3G3]A "D"[F3A3](E | "A"E)DEF EDB,C | "D"D3(D D2) :|
|: Ac |\
"D"d2d2 B2A2 | d3(d d3)(e | "A"e2)e2 c2A2 | e3(e e3)(f |
"D"f)afe dBAd | "G"BAGB "D"AGFD | "G"GABc defd | "A"edBc "D"d2 :|
